material/.icons/material/widgets.svg

<svg xmlns="http://www.w3.org/2000/svg" viewBox="0 0 24 24"><path d="M3 3h8v4.34l5.66-5.65 5.65 5.65L16.66 13H21v8h-8v-8h3.66L11 7.34V11H3V3m0 10h8v8H3v-8z"/></svg>

<?xml version="1.0" encoding="UTF-8"?><!DOCTYPE svg PUBLIC "-//W3C//DTD SVG 1.1//EN" "http://www.w3.org/Graphics/SVG/1.1/DTD/svg11.dtd"><svg xmlns="http://www.w3.org/2000/svg" xmlns:xlink="http://www.w3.org/1999/xlink" version="1.1" id="mdi-widgets" width="24" height="24" viewBox="0 0 24 24"><path d="M3,3H11V7.34L16.66,1.69L22.31,7.34L16.66,13H21V21H13V13H16.66L11,7.34V11H3V3M3,13H11V21H3V13Z" /></svg>
